icons/cold_chain.svg

<svg width="48" height="48" viewBox="0 0 48 48" fill="none" xmlns="http://www.w3.org/2000/svg">
<path fill-rule="evenodd" clip-rule="evenodd" d="M33.9645 42.9501C32.7959 43.6182 31.4425 44 30 44C25.5817 44 22 40.4183 22 36C22 33.4504 23.1927 31.1793 25.0506 29.7144C25.0173 29.4811 25 29.2425 25 29V9C25 6.23858 27.2386 4 30 4C32.7614 4 35 6.23858 35 9V29C35 29.2425 34.9827 29.4811 34.9493 29.7144C36.8073 31.1793 38 33.4504 38 36C38 38.8725 36.4861 41.3914 34.2126 42.8023L34.0147 43.0003L33.9645 42.9501ZM26.289 31.2849L26.2947 31.2803L34.7196 39.7051C34.5484 39.9229 34.3625 40.1285 34.1633 40.3205L25.6794 31.8366C25.8696 31.6394 26.0732 31.455 26.289 31.2849ZM24.5344 33.52C24.4091 33.7957 24.3041 34.0825 24.2213 34.3785L31.6212 41.7784C31.9172 41.6955 32.204 41.5905 32.4796 41.4652L24.5344 33.52ZM24.0975 37.0831C24.5433 39.5285 26.4715 41.4567 28.9169 41.9025L24.0975 37.0831ZM35.7053 37.8624L27.0042 29.1614C27.0014 29.1081 27 29.0543 27 29V27.9856L35.9305 36.916C35.8807 37.2408 35.805 37.557 35.7053 37.8624ZM35.5445 33.7016L27 25.1572V23.9855L32.9631 29.9486C33.0244 30.4687 33.2889 30.952 33.711 31.2849C34.5132 31.9174 35.1487 32.7476 35.5445 33.7016ZM30 6C28.3431 6 27 7.34315 27 9V21.0183C27.2379 21.0385 27.472 21.0738 27.6973 21.1154C28.188 21.206 28.7253 21.3454 29.2532 21.4824C29.27 21.4868 29.2868 21.4912 29.3036 21.4955C29.4213 21.5261 29.5384 21.5564 29.6543 21.586C30.7431 21.8635 31.8568 22.1071 33 22.0852V20H31C30.4477 20 30 19.5523 30 19C30 18.4477 30.4477 18 31 18H33V16H31C30.4477 16 30 15.5523 30 15C30 14.4477 30.4477 14 31 14H33V12H31C30.4477 12 30 11.5523 30 11C30 10.4477 30.4477 10 31 10H33V9C33 7.34315 31.6568 6 30 6ZM33 27.1571L29.4364 23.5935C29.8998 23.7086 30.3993 23.823 30.9273 23.9125L33 25.9852V27.1571Z" fill="black"/>
<path d="M16.3301 12C16.3301 11.4477 15.8824 11 15.3301 11C14.7779 11 14.3301 11.4477 14.3301 12V15.268L11.5 13.6341C11.0218 13.3579 10.4102 13.5218 10.134 14.0001C9.85788 14.4784 10.0218 15.09 10.5 15.3661L13.33 17L10.5 18.6339C10.0217 18.91 9.85782 19.5216 10.134 19.9999C10.4101 20.4782 11.0217 20.6421 11.5 20.3659L14.3301 18.7319V22C14.3301 22.5523 14.7779 23 15.3301 23C15.8824 23 16.3301 22.5523 16.3301 22V18.7321L19.1603 20.3661C19.6386 20.6423 20.2502 20.4784 20.5263 20.0001C20.8025 19.5218 20.6386 18.9102 20.1603 18.6341L17.3299 17L20.1602 15.3659C20.6385 15.0898 20.8024 14.4782 20.5263 13.9999C20.2501 13.5216 19.6385 13.3577 19.1602 13.6339L16.3301 15.2678V12Z" fill="black"/>
</svg>

<svg
  xmlns="http://www.w3.org/2000/svg"
  width="24"
  height="24"
  viewBox="0 0 24 24"
  fill="none"
  stroke="currentColor"
  stroke-width="2"
  stroke-linecap="round"
  stroke-linejoin="round"
>
  <path
    fill-rule="evenodd"
    d="M33.965 42.95a8 8 0 0 1-8.914-13.236A5 5 0 0 1 25 29V9a5 5 0 0 1 10 0v20q0 .364-.05.714A7.99 7.99 0 0 1 38 36a8 8 0 0 1-3.787 6.802l-.198.198zm-7.676-11.665.006-.005 8.425 8.425a6 6 0 0 1-.557.616l-8.484-8.484q.286-.297.61-.552m-1.755 2.235q-.188.415-.313.858l7.4 7.4q.444-.123.859-.313zm-.436 3.563a6.01 6.01 0 0 0 4.819 4.82zm11.607.78-8.7-8.702A3 3 0 0 1 27 29v-1.014l8.93 8.93q-.075.488-.225.946m-.16-4.161L27 25.157v-1.172l5.963 5.964a2 2 0 0 0 .748 1.336 6 6 0 0 1 1.834 2.417M30 6a3 3 0 0 0-3 3v12.018c.238.02.472.056.697.097a23 23 0 0 1 1.607.38l.35.091c1.09.277 2.203.521 3.346.5V20h-2a1 1 0 1 1 0-2h2v-2h-2a1 1 0 1 1 0-2h2v-2h-2a1 1 0 1 1 0-2h2V9a3 3 0 0 0-3-3m3 21.157-3.564-3.564c.464.116.963.23 1.491.32L33 25.985z"
    clip-rule="evenodd"
  />
  <path d="M16.33 12a1 1 0 1 0-2 0v3.268l-2.83-1.634a1 1 0 1 0-1 1.732L13.33 17l-2.83 1.634a1 1 0 1 0 1 1.732l2.83-1.634V22a1 1 0 0 0 2 0v-3.268l2.83 1.634a1 1 0 1 0 1-1.732L17.33 17l2.83-1.634a1 1 0 1 0-1-1.732l-2.83 1.634z" />
</svg>
